icons/wine-two-color.svg

<?xml version="1.0" encoding="UTF-8"?><svg xmlns="http://www.w3.org/2000/svg" viewBox="0 0 50 50"><g id="uuid-a968e34c-8b1f-424c-9e27-2833c926e24c"><g><path d="M14.99,15.63v.85c.36,5.54,4.66,9.94,10.03,10.55v20.27h-5.94v2.07h14.41v-2.07h-5.94V27.03c5.38-.61,9.68-5.02,10.03-10.56v-.83H14.99Z" fill="#ffcd00"/><path d="M37,.78c-.09-.09-.22-.15-.35-.15H12.92c-.13,0-.26,.05-.35,.15s-.15,.22-.15,.36l.07,13.86v.03c.36,5.73,4.59,10.36,10.03,11.38v18.39h-5.44c-.28,0-.5,.22-.5,.5v3.07c0,.28,.22,.5,.5,.5h15.41c.28,0,.5-.22,.5-.5v-3.07c0-.28-.22-.5-.5-.5h-5.44V26.41c5.43-1.02,9.67-5.66,10.03-11.41l.07-13.86c0-.13-.05-.26-.15-.36Zm-5.01,45.02v2.07h-14.41v-2.07h14.41Zm-8.47-1V26.59h2.52v18.21h-2.52Zm12.55-29.84c-.36,5.74-4.95,10.27-10.59,10.62h-1.4c-5.64-.35-10.22-4.88-10.59-10.61v-.85h22.58v.83Zm0-1.83H13.48l-.06-11.49h22.72l-.06,11.49Z"/></g></g><g id="uuid-a4579950-ea32-4c6f-a4e6-48e1034704c2"><text transform="translate(-.33 55.07)" font-family="Roboto-Regular, Roboto" font-size="6"><tspan x="0" y="0">wine</tspan></text></g></svg>

<svg xmlns="http://www.w3.org/2000/svg" viewBox="0 0 50 50"><g id="b68921fa-90c1-412f-8949-87107b4a8c1a" data-name="ICONS"><path d="M15,15.63v.85A11.37,11.37,0,0,0,25,27V47.3H19.08v2.07H33.49V47.3H27.55V27a11.35,11.35,0,0,0,10-10.57v-.83Z" fill="#fdd600"/><path d="M37,.78a.51.51,0,0,0-.35-.15H12.92a.51.51,0,0,0-.35.15.49.49,0,0,0-.15.36L12.49,15v0a12.38,12.38,0,0,0,10,11.38V44.8H17.08a.5.5,0,0,0-.5.5v3.07a.5.5,0,0,0,.5.5H32.49a.5.5,0,0,0,.5-.5V45.3a.5.5,0,0,0-.5-.5H27.05V26.41A12.4,12.4,0,0,0,37.07,15l.08-13.86A.49.49,0,0,0,37,.78Zm-5,45v2.07H17.58V45.8H32Zm-8.47-1V26.59h2.53V44.8ZM36.07,15A11.36,11.36,0,0,1,25.48,25.59h-1.4A11.37,11.37,0,0,1,13.49,15v-.85H36.08Zm0-1.83H13.48l-.06-11.5H36.15Z" fill="#231f20"/></g><g id="ee8e68fe-3502-47e8-bc7d-d7d86e97b292" data-name="LABELS"><text transform="translate(-0.33 55.07)" font-size="6" fill="#231f20" font-family="Roboto-Regular, Roboto">wine</text></g></svg>
